!!!COM: Music21
!!!OTL: Valse de Lalín
!!!OMV: pezas_valses_valse-de-lalin_valse-de-lalin-partitura.musicxml
**kern
*I"Bagpipes
*I'Bag
*clefG^2
*k[]
*M3/4
=1
!LO:TX:a:t=Presto
4ee
4dd
4ee
=
2aa
4gg
=
[2.ee
=
2.ee]
=
4ee
4dd
4ee
=
2gg
4gg-X
=
[2.ff
=
2.ff]
=
4ff
4ee
4ff
=
2bb
4ccc
=
2.bb
=
2.ff
=
4ff
4ee
4ff
=
2bb
4aa
=
2.gg
!!linebreak:original
=
8ggL
8aaJ
8ggL
8ffJ
8eeL
8ddJ
=
4ee
4dd
4ee
=
2aa
4gg
=
[2.ee
=
2.ee]
=
4ee
4dd
4ee
=
2gg
4ff
=
[2.aa
=
2.aa]
=
4aa
4gg
4aa
=
4ccc
4bb
4aa
=
2gg
4ee
=
4ee
4ff
4aa
=
2gg
4gg
!!linebreak:original
=
2ff
4ff
=
[2.ee
=
2.ee]
=||
*M3/4
!LO:TX:a:t=Presto
4ee
4dd
4ee
=
2aa
4gg
=
[2.ee
=
2.ee]
=
4ee
4dd
4ee
=
2gg
4gg-X
=
[2.ff
=
2.ff]
=
4ff
4ee
4ff
=
2bb
4ccc
=
2.bb
!!linebreak:original
=
2.ff
=
4ff
4ee
4ff
=
2bb
4aa
=
2.gg
=
8ggL
8aaJ
8ggL
8ffJ
8eeL
8ddJ
=
4ee
4dd
4ee
=
2aa
4gg
=
[2.ee
=
2.ee]
=
4ee
4dd
4ee
=
2gg
4ff
=
[2.aa
=
2.aa]
=
4aa
4gg
4aa
!!linebreak:original
=
4ccc
4bb
4aa
=
2gg
4ee
=
4ee
4ff
4aa
=
2gg
4gg
=
2ff
4ff
=
4ee
4gg
4ee
=
2.cc
=||
4.gg
8ee
8ggL
8eeJ
=
4.gg
8ee
8ffL
8ggJ
=
2aa
4aa
=
2.gg
=
4.gg
8ee
8ggL
8eeJ
!!linebreak:original
=
4.gg
8ee
8ffL
8ggJ
=
2aa
4aa
=
2.ff
=
4.aa
8ff
8aaL
8ffJ
=
4.aa
8ff
8ggL
8aaJ
=
2bb
4bb
=
2.aa
=
4.aa
8ff
8aaL
8ffJ
=
4.aa
8ff
8ggL
8aaJ
=
2bb
4bb
=
2.gg
!!linebreak:original
=
4.gg
8ee
8ggL
8eeJ
=
4.gg
8ee
8ffL
8ggJ
=
2aa
4aa
=
2.gg
=
4.gg
8ee
8ggL
8eeJ
=
4.gg
8ee
8ffL
8ggJ
=
2bb-X
4bb-
=
2.aa
=
4.bb
8aa
8ggL
8aaJ
=
4.bb
8aa
8ggL
8aaJ
!!linebreak:original
=
4.gg
8ff
8eeL
8ffJ
=
4.gg
8ff
8eeL
8ggJ
=
4.ff
8ee
8ddL
8eeJ
=
4.ff
8ee
8ddL
8ffJ
=
[2.ee
=
2.ee]
=||
4.gg
8ee
8ggL
8eeJ
=
4.gg
8ee
8ffL
8ggJ
=
2aa
4aa
=
2.gg
!!linebreak:original
=
4.gg
8ee
8ggL
8eeJ
=
4.gg
8ee
8ffL
8ggJ
=
2aa
4aa
=
2.ff
=
4.aa
8ff
8aaL
8ffJ
=
4.aa
8ff
8ggL
8aaJ
=
2bb
4bb
=
2.aa
=
4.aa
8ff
8aaL
8ffJ
=
4.aa
8ff
8ggL
8aaJ
=
2bb
4bb
!!linebreak:original
=
2.gg
=
4.gg
8ee
8ggL
8eeJ
=
4.gg
8ee
8ffL
8ggJ
=
2aa
4aa
=
2.gg
=
4.gg
8ee
8ggL
8eeJ
=
4.gg
8ee
8ffL
8ggJ
=
2bb-X
4bb-
=
2.aa
=
4.bb
8aa
8ggL
8aaJ
=
4.bb
8aa
8ggL
8aaJ
!!linebreak:original
=
4.gg
8ff
8eeL
8ffJ
=
4.gg
8ff
8eeL
8ggJ
=
4.ff
8ee
8ddL
8eeJ
=
4.ff
8ee
8ddL
8ffJ
=||
4ee
4gg
4ee
=
2.cc
=||
*-
